X:57
T: Fuair mise Pign, S. 163
N: I0556
O: Irland
S: O'SULLIVAN, Donal: Song of the Irish]
R: ???, betrogene Liebe, Untreue]
M: 4/4
L: 1/16
K: F
AB | c4B2A2B4C3C | F4F4F4F2
FG | A4G2A2B4B2c2 | d4=B4c4c2
FG | A4G2A2B4B2c2 | d4=B4c4c2
c_B | A4A2F2G4E2C2 | F4F4F4F2
FG | A4G2A2B4B2c2 | d4=B4c4c2
c_B | A4A2F2G4E2C2 | F4F4F4F2

@@@ Tune index: 7332
